client/src/shared/assets/icons/document.svg

<svg width="20" height="24" viewBox="0 0 20 24" fill="none" xmlns="http://www.w3.org/2000/svg">
<path fill-rule="evenodd" clip-rule="evenodd" d="M2.5 0C1.11929 0 0 1.09047 0 2.43563V22.7731C0 23.8724 1.37698 24.409 2.15518 23.613L4.2399 21.4804C4.67427 21.036 5.38011 20.976 5.887 21.3401L9.25813 23.7623C9.69925 24.0792 10.3007 24.0792 10.7419 23.7623L14.113 21.3401C14.6199 20.976 15.3258 21.036 15.7601 21.4804L17.8449 23.613C18.623 24.409 20 23.8724 20 22.7731V2.43563C20 1.09047 18.8808 0 17.5 0H2.5ZM14.375 8.52469C15.0654 8.52469 15.625 7.97947 15.625 7.30688C15.625 6.63431 15.0654 6.08907 14.375 6.08907H5.625C4.93465 6.08907 4.375 6.63431 4.375 7.30688C4.375 7.97947 4.93465 8.52469 5.625 8.52469H14.375ZM13.125 12.787C13.125 13.4596 12.5654 14.0049 11.875 14.0049H5.625C4.93465 14.0049 4.375 13.4596 4.375 12.787C4.375 12.1144 4.93465 11.5692 5.625 11.5692H11.875C12.5654 11.5692 13.125 12.1144 13.125 12.787Z" fill="#515153"/>
</svg>

<svg xmlns="http://www.w3.org/2000/svg" fill="currentColor" viewBox="0 0 20 24"><path fill-rule="evenodd" d="M2.5 0C1.12 0 0 1.09 0 2.436v20.337c0 1.1 1.377 1.636 2.155.84L4.24 21.48a1.274 1.274 0 0 1 1.647-.14l3.371 2.422a1.28 1.28 0 0 0 1.484 0l3.371-2.422a1.274 1.274 0 0 1 1.647.14l2.085 2.133c.778.796 2.155.26 2.155-.84V2.436C20 1.09 18.88 0 17.5 0zm11.875 8.525c.69 0 1.25-.546 1.25-1.218 0-.673-.56-1.218-1.25-1.218h-8.75c-.69 0-1.25.545-1.25 1.218s.56 1.218 1.25 1.218zm-1.25 4.262c0 .673-.56 1.218-1.25 1.218h-6.25c-.69 0-1.25-.545-1.25-1.218s.56-1.218 1.25-1.218h6.25c.69 0 1.25.545 1.25 1.218" clip-rule="evenodd"/></svg>
